X: 2
T: Weavers' March, The
Z: ceolachan
S: https://thesession.org/tunes/6330#setting18089
R: reel
M: 4/4
L: 1/8
K: Dmaj
ABAG F2 A2 | dc d2 A4 | Bc d2 c2 d2 | g2 f2 e2 FG |ABAG FG A2 | BcdB A4 |1 d2 d2 c2 de | fedc BA :|2 Bc d2 c2 de | fedc Bcde |||: f2 gf e2 fe | dfec dcBA | Bc d2 c2 d2 | g2 f2 e4 |A3 G FG A2 | Bc d2 A4 |1 Bc d2 cd e2 | e4 d2 de :|2 Bc d2 cd e2 | e4 d2 ||
